symbols/web/aod/materialsymbolsrounded/aod_wght500grad200fill1_24px.svg

<svg xmlns="http://www.w3.org/2000/svg" height="24" width="24"><path d="M8.825 11.675q-.4 0-.675-.263-.275-.262-.275-.687 0-.4.262-.675.263-.275.688-.275h6.35q.4 0 .675.275t.275.675q0 .425-.262.687-.263.263-.688.263Zm1 3.075q-.4 0-.675-.262-.275-.263-.275-.663 0-.425.262-.688.263-.262.688-.262h4.35q.4 0 .675.262.275.263.275.688 0 .4-.262.663-.263.262-.688.262ZM7 23.9q-1.2 0-2.012-.813-.813-.812-.813-2.012V2.925q0-1.2.813-2.013Q5.8.1 7 .1h10q1.2 0 2.013.812.812.813.812 2.013v18.15q0 1.2-.812 2.012Q18.2 23.9 17 23.9Zm0-6.15h10V6.25H7Z"/></svg>

<svg xmlns="http://www.w3.org/2000/svg" height="24" width="24"><path d="M8.825 11.675Q8.425 11.675 8.15 11.412Q7.875 11.15 7.875 10.725Q7.875 10.325 8.137 10.05Q8.4 9.775 8.825 9.775H15.175Q15.575 9.775 15.85 10.05Q16.125 10.325 16.125 10.725Q16.125 11.15 15.863 11.412Q15.6 11.675 15.175 11.675ZM9.825 14.75Q9.425 14.75 9.15 14.488Q8.875 14.225 8.875 13.825Q8.875 13.4 9.137 13.137Q9.4 12.875 9.825 12.875H14.175Q14.575 12.875 14.85 13.137Q15.125 13.4 15.125 13.825Q15.125 14.225 14.863 14.488Q14.6 14.75 14.175 14.75ZM7 23.9Q5.8 23.9 4.988 23.087Q4.175 22.275 4.175 21.075V2.925Q4.175 1.725 4.988 0.912Q5.8 0.1 7 0.1H17Q18.2 0.1 19.013 0.912Q19.825 1.725 19.825 2.925V21.075Q19.825 22.275 19.013 23.087Q18.2 23.9 17 23.9ZM7 17.75H17V6.25H7Z"/></svg>
